icon_installer/data/icons/scalable/actions/show-strong-language-symbolic.svg

<?xml version="1.0" encoding="UTF-8"?>
<svg height="16px" viewBox="0 0 16 16" width="16px" xmlns="http://www.w3.org/2000/svg">
    <path d="m 3 2 v 3 h -2 v 2 h 2 v 2 h -2 v 2 h 2 v 3 h 2 v -3 h 2 v 3 h 2 v -3 h 2 v -2 h -2 v -2 h 2 v -2 h -2 v -3 h -2 v 3 h -2 v -3 z m 9 0 v 9 h 2 v -9 z m -7 5 h 2 v 2 h -2 z m 8 5 c -0.828125 0 -1.5 0.671875 -1.5 1.5 s 0.671875 1.5 1.5 1.5 s 1.5 -0.671875 1.5 -1.5 s -0.671875 -1.5 -1.5 -1.5 z m 0 0" fill="#222222"/>
</svg>

<svg xmlns="http://www.w3.org/2000/svg" width="16" height="16"><path fill="#222" d="M3 2v3H1v2h2v2H1v2h2v3h2v-3h2v3h2v-3h2V9H9V7h2V5H9V2H7v3H5V2zm9 0v9h2V2zM5 7h2v2H5zm8 5a1.5 1.5 0 1 0 0 3 1.5 1.5 0 0 0 0-3zm0 0"/></svg>
